projects/amora/img/location.svg

<svg width="15" height="15" viewBox="0 0 15 15" fill="none" xmlns="http://www.w3.org/2000/svg">
<g opacity="0.6">
<mask id="mask0_36_311" style="mask-type:alpha" maskUnits="userSpaceOnUse" x="0" y="0" width="15" height="15">
<rect x="0.688354" y="0.222656" width="14.0493" height="14.0493" rx="7.02465" fill="#D9D9D9"/>
</mask>
<g mask="url(#mask0_36_311)">
<path d="M7.71862 12.7054C7.58203 12.7054 7.44544 12.681 7.30885 12.6323C7.17226 12.5835 7.0503 12.5103 6.94298 12.4127C6.30881 11.8274 5.74782 11.2566 5.25999 10.7005C4.77217 10.1444 4.36484 9.60532 4.038 9.08335C3.71116 8.56138 3.46237 8.05892 3.29163 7.57598C3.12089 7.09303 3.03552 6.63204 3.03552 6.193C3.03552 4.72953 3.50627 3.56363 4.44777 2.69531C5.38927 1.82698 6.47955 1.39282 7.71862 1.39282C8.95769 1.39282 10.048 1.82698 10.9895 2.69531C11.931 3.56363 12.4017 4.72953 12.4017 6.193C12.4017 6.63204 12.3163 7.09303 12.1456 7.57598C11.9749 8.05892 11.7261 8.56138 11.3992 9.08335C11.0724 9.60532 10.6651 10.1444 10.1772 10.7005C9.68942 11.2566 9.12843 11.8274 8.49426 12.4127C8.38694 12.5103 8.26498 12.5835 8.12839 12.6323C7.9918 12.681 7.85521 12.7054 7.71862 12.7054ZM7.71862 7.2467C8.04058 7.2467 8.3162 7.13206 8.54548 6.90278C8.77476 6.6735 8.88939 6.39788 8.88939 6.07592C8.88939 5.75396 8.77476 5.47834 8.54548 5.24906C8.3162 5.01979 8.04058 4.90515 7.71862 4.90515C7.39666 4.90515 7.12104 5.01979 6.89176 5.24906C6.66248 5.47834 6.54785 5.75396 6.54785 6.07592C6.54785 6.39788 6.66248 6.6735 6.89176 6.90278C7.12104 7.13206 7.39666 7.2467 7.71862 7.2467Z" fill="#645140"/>
</g>
</g>
</svg>

<svg width="15" height="15" fill="none" xmlns="http://www.w3.org/2000/svg"><g opacity=".6"><mask id="a" style="mask-type:alpha" maskUnits="userSpaceOnUse" x="0" y="0" width="15" height="15"><rect x=".688" y=".223" width="14.049" height="14.049" rx="7.025" fill="#D9D9D9"/></mask><g mask="url(#a)"><path d="M7.719 12.705c-.137 0-.274-.024-.41-.073a1.077 1.077 0 0 1-.366-.22A22.884 22.884 0 0 1 5.26 10.7a12.69 12.69 0 0 1-1.222-1.617 7.7 7.7 0 0 1-.746-1.507 4.148 4.148 0 0 1-.256-1.383c0-1.463.47-2.63 1.412-3.498.941-.868 2.032-1.302 3.27-1.302 1.24 0 2.33.434 3.271 1.302.942.869 1.413 2.035 1.413 3.498 0 .439-.086.9-.256 1.383-.171.483-.42.985-.747 1.507a12.68 12.68 0 0 1-1.222 1.617 22.873 22.873 0 0 1-1.683 1.713c-.107.097-.229.17-.366.22a1.213 1.213 0 0 1-.41.072Zm0-5.458c.322 0 .597-.115.826-.344.23-.23.344-.505.344-.827 0-.322-.114-.598-.344-.827a1.127 1.127 0 0 0-.826-.344c-.322 0-.598.115-.827.344-.23.23-.344.505-.344.827 0 .322.114.598.344.827.229.23.505.344.827.344Z" fill="#645140"/></g></g></svg>
